communes/321.svg

<?xml version="1.0" encoding="UTF-8" standalone="no"?>
<svg
   xmlns:dc="http://purl.org/dc/elements/1.1/"
   xmlns:cc="http://web.resource.org/cc/"
   xmlns:rdf="http://www.w3.org/1999/02/22-rdf-syntax-ns#"
   xmlns:svg="http://www.w3.org/2000/svg"
   xmlns="http://www.w3.org/2000/svg"
   xmlns:xlink="http://www.w3.org/1999/xlink"
   xmlns:sodipodi="http://sodipodi.sourceforge.net/DTD/sodipodi-0.dtd"
   xmlns:inkscape="http://www.inkscape.org/namespaces/inkscape"
   height="763"
   width="603"
   version="1.0"
   id="svg20"
   sodipodi:version="0.32"
   inkscape:version="0.44.1"
   sodipodi:docname="Aarwangen-coat of arms.svg"
   sodipodi:docbase="F:\Mis Documentos\Mis imágenes\Encyclopédie\Escudos de Suiza\Escudos ya hechos\Aarwangen">
  <metadata
     id="metadata31">
    <rdf:RDF>
      <cc:Work
         rdf:about="">
        <dc:format>image/svg+xml</dc:format>
        <dc:type
           rdf:resource="http://purl.org/dc/dcmitype/StillImage" />
        <dc:date>07-AUG-2006</dc:date>
        <dc:creator>
          <cc:Agent>
            <dc:title>Jérôme BLUM (wagner51)</dc:title>
          </cc:Agent>
        </dc:creator>
        <cc:license
           rdf:resource="http://creativecommons.org/licenses/GPL/2.0/" />
        <dc:coverage />
        <dc:description>Gabarit pour le Projet:Blasons de WIkipédia</dc:description>
        <dc:subject>
          <rdf:Bag>
            <rdf:li>blason suisse modèle gabarit projet blasons</rdf:li>
          </rdf:Bag>
        </dc:subject>
        <dc:language>fr</dc:language>
        <dc:title>Gabrit d'un blason suisse</dc:title>
      </cc:Work>
      <cc:License
         rdf:about="http://creativecommons.org/licenses/GPL/2.0/">
        <cc:permits
           rdf:resource="http://web.resource.org/cc/Reproduction" />
        <cc:permits
           rdf:resource="http://web.resource.org/cc/Distribution" />
        <cc:requires
           rdf:resource="http://web.resource.org/cc/Notice" />
        <cc:permits
           rdf:resource="http://web.resource.org/cc/DerivativeWorks" />
        <cc:requires
           rdf:resource="http://web.resource.org/cc/ShareAlike" />
        <cc:requires
           rdf:resource="http://web.resource.org/cc/SourceCode" />
      </cc:License>
    </rdf:RDF>
  </metadata>
  <defs
     id="defs29">
    <linearGradient
       id="linearGradient2893">
      <stop
         style="stop-color:#ffffff;stop-opacity:0.3137255;"
         offset="0"
         id="stop2895" />
      <stop
         id="stop2897"
         offset="0.19"
         style="stop-color:#ffffff;stop-opacity:0.25098041;" />
      <stop
         style="stop-color:#6b6b6b;stop-opacity:0.1254902;"
         offset="0.60000002"
         id="stop2901" />
      <stop
         style="stop-color:#000000;stop-opacity:0.1254902;"
         offset="1"
         id="stop2899" />
    </linearGradient>
    <linearGradient
       id="linearGradient2955">
      <stop
         style="stop-color:white;stop-opacity:0;"
         offset="0"
         id="stop2965" />
      <stop
         style="stop-color:black;stop-opacity:0.64583331;"
         offset="1"
         id="stop2959" />
    </linearGradient>
    <radialGradient
       inkscape:collect="always"
       xlink:href="#linearGradient2893"
       id="radialGradient3236"
       gradientUnits="userSpaceOnUse"
       gradientTransform="matrix(1.215027,1.531577e-24,1.464684e-23,1.266667,-839.1924,-490.4894)"
       cx="858.04236"
       cy="579.93323"
       fx="858.04236"
       fy="579.93323"
       r="300" />
  </defs>
  <sodipodi:namedview
     inkscape:window-height="682"
     inkscape:window-width="1024"
     inkscape:pageshadow="2"
     inkscape:pageopacity="0.0"
     guidetolerance="10.0"
     gridtolerance="10.0"
     objecttolerance="10.0"
     borderopacity="1.0"
     bordercolor="#666666"
     pagecolor="#ffffff"
     id="base"
     inkscape:zoom="0.55856493"
     inkscape:cx="446.15234"
     inkscape:cy="357.51988"
     inkscape:window-x="-4"
     inkscape:window-y="-4"
     inkscape:current-layer="layer1"
     showgrid="true" />
  <desc
     id="desc22">Coat of Arms of Canton of Freiburg (Fribourg)</desc>
  <g
     inkscape:groupmode="layer"
     id="layer1"
     inkscape:label="Fond écu"
     sodipodi:insensitive="true">
    <path
       id="path1899"
       d="M 1.5,1.49998 L 1.5,460.3679 C 1.5,626.6785 135.81456,761.5 301.49999,761.5 C 467.18543,761.5 601.5,626.6785 601.5,460.3679 L 601.5,1.49998 L 1.5,1.49998 z "
       style="fill:white;fill-opacity:1" />
    <path
       style="opacity:1;fill:black;fill-opacity:1;fill-rule:evenodd;stroke:black;stroke-width:2.99999976;stroke-linecap:round;stroke-linejoin:round;stroke-miterlimit:4;stroke-dasharray:none;stroke-opacity:1"
       d="M 1.5,1.5 L 1.5,460.375 C 1.5,462.95789 1.5293419,465.52645 1.59375,468.09375 C 1.5940118,468.10416 1.5934872,468.11459 1.59375,468.125 C 1.6581555,470.68181 1.7474748,473.24067 1.875,475.78125 C 1.8765563,475.81226 1.8734344,475.844 1.875,475.875 C 2.0022422,478.3945 2.1864266,480.90347 2.375,483.40625 C 2.4584513,484.51317 2.5609073,485.61521 2.65625,486.71875 C 2.7788899,488.13853 2.8890476,489.55468 3.03125,490.96875 C 3.0375511,491.03142 3.0561606,491.09359 3.0625,491.15625 C 3.3106746,493.60868 3.568545,496.06534 3.875,498.5 C 3.884181,498.57292 3.8970171,498.64584 3.90625,498.71875 C 4.5290603,503.63678 5.2687822,508.53398 6.125,513.375 C 6.1434046,513.47906 6.1689889,513.58348 6.1875,513.6875 C 6.6060577,516.03944 7.0586209,518.38608 7.53125,520.71875 C 7.8770005,522.42489 8.2506388,524.11698 8.625,525.8125 C 8.8004392,526.607 8.9745708,527.39537 9.15625,528.1875 C 9.1703786,528.24911 9.1733338,528.3134 9.1875,528.375 C 9.7114941,530.65303 10.268578,532.92959 10.84375,535.1875 C 11.453124,537.57968 12.083931,539.9749 12.75,542.34375 C 13.218706,544.01058 13.722302,545.65754 14.21875,547.3125 C 14.465987,548.13675 14.714681,548.95999 14.96875,549.78125 C 15.059541,550.0747 15.15834,550.36319 15.25,550.65625 C 15.850919,552.57772 16.424451,554.50159 17.0625,556.40625 C 17.122149,556.58429 17.190029,556.75961 17.25,556.9375 C 18.017789,559.21519 18.836002,561.46588 19.65625,563.71875 C 19.83126,564.19951 20.010122,564.67664 20.1875,565.15625 C 20.868802,566.99809 21.565269,568.83163 22.28125,570.65625 C 22.296829,570.69596 22.296904,570.74155 22.3125,570.78125 C 23.120658,572.83821 23.960806,574.903 24.8125,576.9375 C 25.386177,578.30788 25.96929,579.67127 26.5625,581.03125 C 27.037313,582.11971 27.512778,583.19955 28,584.28125 C 28.895714,586.27014 29.812764,588.25318 30.75,590.21875 C 30.860116,590.44965 30.983065,590.67568 31.09375,590.90625 C 32.065826,592.9315 33.046897,594.93776 34.0625,596.9375 C 34.541586,597.88091 35.042579,598.81236 35.53125,599.75 C 36.254973,601.13865 36.97418,602.53045 37.71875,603.90625 C 38.873336,606.03967 40.045932,608.14812 41.25,610.25 C 42.32589,612.12811 43.416441,613.99142 44.53125,615.84375 C 44.668018,616.07104 44.800151,616.30435 44.9375,616.53125 C 46.013171,618.30785 47.107724,620.06027 48.21875,621.8125 C 48.974465,623.00436 49.75937,624.19461 50.53125,625.375 C 51.264159,626.49587 52.002655,627.60836 52.75,628.71875 C 53.917716,630.45373 55.078704,632.16602 56.28125,633.875 C 57.63923,635.80487 59.035799,637.72899 60.4375,639.625 C 61.214413,640.67588 62.022333,641.7097 62.8125,642.75 C 63.705108,643.92518 64.590649,645.11974 65.5,646.28125 C 66.938207,648.11826 68.395496,649.91651 69.875,651.71875 C 69.922592,651.77672 69.952365,651.84831 70,651.90625 C 71.26122,653.44013 72.553069,654.96059 73.84375,656.46875 C 74.947517,657.7585 76.062486,659.04186 77.1875,660.3125 C 77.81351,661.01954 78.429978,661.73644 79.0625,662.4375 C 79.536769,662.96321 80.022093,663.47768 80.5,664 C 81.769613,665.3876 83.048721,666.76157 84.34375,668.125 C 85.913255,669.77724 87.487525,671.41512 89.09375,673.03125 C 89.524829,673.46509 89.972556,673.88129 90.40625,674.3125 C 91.760499,675.659 93.120515,676.99193 94.5,678.3125 C 94.510651,678.3227 94.520598,678.33356 94.53125,678.34375 C 95.905848,679.65891 97.28825,680.96096 98.6875,682.25 C 99.984961,683.44527 101.30667,684.64002 102.625,685.8125 C 103.35758,686.46403 104.1048,687.10558 104.84375,687.75 C 105.76603,688.55442 106.69289,689.36301 107.625,690.15625 C 108.30143,690.73177 108.9747,691.30541 109.65625,691.875 C 111.42791,693.35561 113.22541,694.80994 115.03125,696.25 C 116.90068,697.74077 118.7822,699.2097 120.6875,700.65625 C 122.15924,701.77363 123.63226,702.87816 125.125,703.96875 C 125.86109,704.50654 126.60262,705.03129 127.34375,705.5625 C 128.07865,706.08939 128.82269,706.60462 129.5625,707.125 C 130.71818,707.93764 131.86371,708.76588 133.03125,709.5625 C 133.27941,709.73187 133.53256,709.89386 133.78125,710.0625 C 135.2757,711.07565 136.79904,712.07584 138.3125,713.0625 C 139.98696,714.15412 141.67771,715.22248 143.375,716.28125 C 143.88025,716.59643 144.36775,716.93776 144.875,717.25 C 145.81325,717.82763 146.77372,718.36997 147.71875,718.9375 C 149.20236,719.82847 150.68742,720.72793 152.1875,721.59375 C 153.89409,722.57852 155.61624,723.54817 157.34375,724.5 C 159.06606,725.44897 160.78857,726.36544 162.53125,727.28125 C 162.81638,727.43109 163.08933,727.60105 163.375,727.75 C 165.43675,728.82499 167.53559,729.87825 169.625,730.90625 C 171.62241,731.88899 173.63418,732.84207 175.65625,733.78125 C 175.89723,733.89318 176.13367,734.0137 176.375,734.125 C 178.22697,734.97916 180.0967,735.80783 181.96875,736.625 C 182.33601,736.78531 182.69448,736.96612 183.0625,737.125 C 187.4051,738.99975 191.8044,740.76555 196.25,742.4375 C 196.26828,742.44438 196.29422,742.43063 196.3125,742.4375 C 197.96779,743.05967 199.61223,743.68775 201.28125,744.28125 C 202.13535,744.58497 202.98612,744.89135 203.84375,745.1875 C 205.90904,745.90067 208.00834,746.58109 210.09375,747.25 C 211.98386,747.85626 213.87506,748.43053 215.78125,749 C 216.54284,749.22752 217.29838,749.4659 218.0625,749.6875 C 220.09404,750.27667 222.13848,750.82802 224.1875,751.375 C 226.10648,751.88726 228.03486,752.40017 229.96875,752.875 C 230.83344,753.08735 231.69489,753.2952 232.5625,753.5 C 234.06811,753.85537 235.57948,754.1675 237.09375,754.5 C 237.7613,754.64658 238.42454,754.79539 239.09375,754.9375 C 240.73548,755.28614 242.37973,755.61593 244.03125,755.9375 C 245.01912,756.1299 246.0087,756.3486 247,756.53125 C 249.03937,756.90685 251.10268,757.25977 253.15625,757.59375 C 253.18672,757.59871 253.21953,757.5888 253.25,757.59375 C 255.59765,757.97482 257.94693,758.36145 260.3125,758.6875 C 260.45846,758.70762 260.60398,758.73009 260.75,758.75 C 263.18859,759.08244 265.6369,759.35175 268.09375,759.625 C 270.53044,759.89601 272.98357,760.13168 275.4375,760.34375 C 275.50058,760.3492 275.56191,760.36959 275.625,760.375 C 275.66635,760.37855 275.70864,760.37147 275.75,760.375 C 277.72664,760.54374 279.70011,760.68242 281.6875,760.8125 C 282.59232,760.87172 283.49926,760.94885 284.40625,761 C 286.53807,761.12019 288.66901,761.20597 290.8125,761.28125 C 293.22916,761.36612 295.66288,761.44158 298.09375,761.46875 C 298.22908,761.47026 298.36463,761.46742 298.5,761.46875 L 298.5,382.5 L 601.5,382.5 L 601.5,233.5 L 298.5,233.5 L 298.5,1.5 L 1.5,1.5 z "
       id="path88267" />
  </g>
  <g
     inkscape:groupmode="layer"
     id="layer3"
     inkscape:label="Reflet final"
     style="display:inline"
     sodipodi:insensitive="true">
    <path
       style="fill:url(#radialGradient3236);fill-opacity:1"
       d="M 1.5,1.5 L 1.5,460.3679 C 1.5,626.67854 135.81454,761.5 301.49993,761.5 C 467.1854,761.5 601.5,626.67854 601.5,460.3679 L 601.5,1.5 L 1.5,1.5 z "
       id="path2346" />
  </g>
  <g
     inkscape:groupmode="layer"
     id="layer4"
     inkscape:label="Contour final"
     style="display:inline"
     sodipodi:insensitive="true">
    <path
       style="fill:none;fill-opacity:1;stroke:black;stroke-width:3;stroke-miterlimit:4;stroke-dasharray:none;stroke-opacity:1"
       d="M 1.5,1.5 L 1.5,460.36794 C 1.5,626.67854 135.81454,761.5 301.49993,761.5 C 467.1854,761.5 601.5,626.67854 601.5,460.36794 L 601.5,1.5 L 1.5,1.5 z "
       id="path3239" />
  </g>
</svg>

<?xml version="1.0" encoding="UTF-8"?>
<svg version="1.0" viewBox="0 0 603 763" xmlns="http://www.w3.org/2000/svg" xmlns:cc="http://web.resource.org/cc/" xmlns:dc="http://purl.org/dc/elements/1.1/" xmlns:rdf="http://www.w3.org/1999/02/22-rdf-syntax-ns#" xmlns:xlink="http://www.w3.org/1999/xlink">
<metadata>
<rdf:RDF>
<cc:Work rdf:about="">
<dc:format>image/svg+xml</dc:format>
<dc:type rdf:resource="http://purl.org/dc/dcmitype/StillImage"/>
<dc:date>07-AUG-2006</dc:date>
<dc:creator>
<cc:Agent>
<dc:title>Jérôme BLUM (wagner51)</dc:title>
</cc:Agent>
</dc:creator>
<cc:license rdf:resource="http://creativecommons.org/licenses/GPL/2.0/"/>
<dc:coverage/>
<dc:description>Gabarit pour le Projet:Blasons de WIkipédia</dc:description>
<dc:subject>
<rdf:Bag>
<rdf:li>blason suisse modèle gabarit projet blasons</rdf:li>
</rdf:Bag>
</dc:subject>
<dc:language>fr</dc:language>
<dc:title>Gabrit d'un blason suisse</dc:title>
</cc:Work>
<cc:License rdf:about="http://creativecommons.org/licenses/GPL/2.0/">
<cc:permits rdf:resource="http://web.resource.org/cc/Reproduction"/>
<cc:permits rdf:resource="http://web.resource.org/cc/Distribution"/>
<cc:requires rdf:resource="http://web.resource.org/cc/Notice"/>
<cc:permits rdf:resource="http://web.resource.org/cc/DerivativeWorks"/>
<cc:requires rdf:resource="http://web.resource.org/cc/ShareAlike"/>
<cc:requires rdf:resource="http://web.resource.org/cc/SourceCode"/>
</cc:License>
</rdf:RDF>
</metadata>
<defs>
<radialGradient id="a" cx="858.04" cy="579.93" r="300" gradientTransform="matrix(1.215 1.5316e-24 1.4647e-23 1.2667 -839.19 -490.49)" gradientUnits="userSpaceOnUse">
<stop stop-color="#fff" stop-opacity=".31373" offset="0"/>
<stop stop-color="#fff" stop-opacity=".25098" offset=".19"/>
<stop stop-color="#6b6b6b" stop-opacity=".12549" offset=".6"/>
<stop stop-opacity=".12549" offset="1"/>
</radialGradient>
</defs>
<desc>Coat of Arms of Canton of Freiburg (Fribourg)</desc>
<g>
<path d="m1.5 1.5v458.87c0 166.31 134.31 301.13 300 301.13 165.69 0 300-134.82 300-301.13v-458.87h-600z" fill="#fff"/>
<path d="m1.5 1.5v458.88c0 2.5829 0.029342 5.1514 0.09375 7.7188 2.618e-4 0.01041-2.628e-4 0.02084 0 0.03125 0.064406 2.5568 0.15372 5.1157 0.28125 7.6562 0.0015563 0.03101-0.0015656 0.06275 0 0.09375 0.12724 2.5195 0.31143 5.0285 0.5 7.5312 0.083451 1.1069 0.18591 2.209 0.28125 3.3125 0.12264 1.4198 0.2328 2.8359 0.375 4.25 0.0063011 0.06267 0.024911 0.12484 0.03125 0.1875 0.24817 2.4524 0.50604 4.9091 0.8125 7.3438 0.009181 0.07292 0.022017 0.14584 0.03125 0.21875 0.62281 4.918 1.3625 9.8152 2.2188 14.656 0.018405 0.10406 0.043989 0.20848 0.0625 0.3125 0.41856 2.3519 0.87112 4.6986 1.3438 7.0312 0.34575 1.7061 0.71939 3.3982 1.0938 5.0938 0.17544 0.7945 0.34957 1.5829 0.53125 2.375 0.014129 0.06161 0.017084 0.1259 0.03125 0.1875 0.52399 2.278 1.0811 4.5546 1.6562 6.8125 0.60937 2.3922 1.2402 4.7874 1.9062 7.1562 0.46871 1.6668 0.9723 3.3138 1.4688 4.9688 0.24724 0.82425 0.49593 1.6475 0.75 2.4688 0.090791 0.29345 0.18959 0.58194 0.28125 0.875 0.60092 1.9215 1.1745 3.8453 1.8125 5.75 0.059649 0.17804 0.12753 0.35336 0.1875 0.53125 0.76779 2.2777 1.586 4.5284 2.4062 6.7812 0.17501 0.48076 0.35387 0.95789 0.53125 1.4375 0.6813 1.8418 1.3778 3.6754 2.0938 5.5 0.015579 0.03971 0.015654 0.0853 0.03125 0.125 0.80816 2.057 1.6483 4.1218 2.5 6.1562 0.57368 1.3704 1.1568 2.7338 1.75 4.0938 0.47481 1.0885 0.95028 2.1683 1.4375 3.25 0.89571 1.9889 1.8128 3.9719 2.75 5.9375 0.11012 0.2309 0.23306 0.45693 0.34375 0.6875 0.97208 2.0252 1.9531 4.0315 2.9688 6.0312 0.47909 0.94341 0.98008 1.8749 1.4688 2.8125 0.72372 1.3886 1.4429 2.7804 2.1875 4.1562 1.1546 2.1334 2.3272 4.2419 3.5312 6.3438 1.0759 1.8781 2.1664 3.7414 3.2812 5.5938 0.13677 0.22729 0.2689 0.4606 0.40625 0.6875 1.0757 1.7766 2.1702 3.529 3.2812 5.2812 0.75572 1.1919 1.5406 2.3821 2.3125 3.5625 0.73291 1.1209 1.4714 2.2334 2.2188 3.3438 1.1677 1.735 2.3287 3.4473 3.5312 5.1562 1.358 1.9299 2.7545 3.854 4.1562 5.75 0.77691 1.0509 1.5848 2.0847 2.375 3.125 0.89261 1.1752 1.7781 2.3697 2.6875 3.5312 1.4382 1.837 2.8955 3.6353 4.375 5.4375 0.047592 0.05797 0.077365 0.12956 0.125 0.1875 1.2612 1.5339 2.5531 3.0543 3.8438 4.5625 1.1038 1.2898 2.2187 2.5731 3.3438 3.8438 0.62601 0.70704 1.2425 1.4239 1.875 2.125 0.47427 0.52571 0.95959 1.0402 1.4375 1.5625 1.2696 1.3876 2.5487 2.7616 3.8438 4.125 1.5695 1.6522 3.1438 3.2901 4.75 4.9062 0.43108 0.43384 0.87881 0.85004 1.3125 1.2812 1.3542 1.3465 2.7143 2.6794 4.0938 4 0.010651 0.0102 0.020598 0.02106 0.03125 0.03125 1.3746 1.3152 2.757 2.6172 4.1562 3.9062 1.2975 1.1953 2.6192 2.39 3.9375 3.5625 0.73258 0.65153 1.4798 1.2931 2.2188 1.9375 0.92228 0.80442 1.8491 1.613 2.7812 2.4062 0.67643 0.57552 1.3497 1.1492 2.0312 1.7188 1.7717 1.4806 3.5692 2.9349 5.375 4.375 1.8694 1.4908 3.751 2.9597 5.6562 4.4062 1.4717 1.1174 2.9448 2.2219 4.4375 3.3125 0.73609 0.53779 1.4776 1.0625 2.2188 1.5938 0.7349 0.52689 1.4789 1.0421 2.2188 1.5625 1.1557 0.81264 2.3012 1.6409 3.4688 2.4375 0.24816 0.16937 0.50131 0.33136 0.75 0.5 1.4944 1.0132 3.0178 2.0133 4.5312 3 1.6745 1.0916 3.3652 2.16 5.0625 3.2188 0.50525 0.31518 0.99275 0.65651 1.5 0.96875 0.93825 0.57763 1.8987 1.12 2.8438 1.6875 1.4836 0.89097 2.9687 1.7904 4.4688 2.6562 1.7066 0.98477 3.4287 1.9544 5.1562 2.9062 1.7223 0.94897 3.4448 1.8654 5.1875 2.7812 0.28513 0.14984 0.55808 0.3198 0.84375 0.46875 2.0618 1.075 4.1606 2.1282 6.25 3.1562 1.9974 0.98274 4.0092 1.9358 6.0312 2.875 0.24098 0.11193 0.47742 0.23245 0.71875 0.34375 1.852 0.85416 3.7217 1.6828 5.5938 2.5 0.36726 0.16031 0.72573 0.34112 1.0938 0.5 4.3426 1.8748 8.7419 3.6406 13.188 5.3125 0.01828 0.00688 0.04422-0.00687 0.0625 0 1.6553 0.62217 3.2997 1.2502 4.9688 1.8438 0.8541 0.30372 1.7049 0.6101 2.5625 0.90625 2.0653 0.71317 4.1646 1.3936 6.25 2.0625 1.8901 0.60626 3.7813 1.1805 5.6875 1.75 0.76159 0.22752 1.5171 0.4659 2.2812 0.6875 2.0315 0.58917 4.076 1.1405 6.125 1.6875 1.919 0.51226 3.8474 1.0252 5.7812 1.5 0.86469 0.21235 1.7261 0.4202 2.5938 0.625 1.5056 0.35537 3.017 0.6675 4.5312 1 0.66755 0.14658 1.3308 0.29539 2 0.4375 1.6417 0.34864 3.286 0.67843 4.9375 1 0.98787 0.1924 1.9774 0.4111 2.9688 0.59375 2.0394 0.3756 4.1027 0.72852 6.1562 1.0625 0.03047 0.00496 0.06328-0.00495 0.09375 0 2.3476 0.38107 4.6969 0.7677 7.0625 1.0938 0.14596 0.02012 0.29148 0.04259 0.4375 0.0625 2.4386 0.33244 4.8869 0.60175 7.3438 0.875 2.4367 0.27101 4.8898 0.50668 7.3438 0.71875 0.06308 0.00545 0.12441 0.02584 0.1875 0.03125 0.04135 0.00355 0.08364-0.00353 0.125 0 1.9766 0.16874 3.9501 0.30742 5.9375 0.4375 0.90482 0.05922 1.8118 0.13635 2.7188 0.1875 2.1318 0.12019 4.2628 0.20597 6.4062 0.28125 2.4167 0.08487 4.8504 0.16033 7.2812 0.1875 0.13533 0.00151 0.27088-0.00133 0.40625 0v-378.97h303v-149h-303v-232h-297z" fill-rule="evenodd" stroke="#000" stroke-linecap="round" stroke-linejoin="round" stroke-width="3"/>
</g>
<g>
<path d="m1.5 1.5v458.87c0 166.31 134.31 301.13 300 301.13 165.69 0 300-134.82 300-301.13v-458.87h-600z" fill="url(#a)"/>
<path d="m1.5 1.5v458.87c0 166.31 134.31 301.13 300 301.13 165.69 0 300-134.82 300-301.13v-458.87h-600z" fill="none" stroke="#000" stroke-width="3"/>
</g>
</svg>
